images/guidelines_icon.svg

<?xml version="1.0" encoding="UTF-8"?>
<svg width="67px" height="97px" viewBox="0 0 67 97" version="1.1" xmlns="http://www.w3.org/2000/svg" xmlns:xlink="http://www.w3.org/1999/xlink">
    <!-- Generator: Sketch 43.2 (39069) - http://www.bohemiancoding.com/sketch -->
    <title>guidelines-icon</title>
    <desc>Created with Sketch.</desc>
    <defs>
        <polygon id="path-1" points="0 0.215558124 0 33.0213981 24.2408126 33.0213981 24.2408126 0.215558124 1.64067715e-20 0.215558124"></polygon>
        <polygon id="path-3" points="20.2800727 33.0217602 20.2800727 0.215882058 0.978532879 0.215882058 0.978532879 33.0217602 20.2800727 33.0217602"></polygon>
    </defs>
    <g id="Pages" stroke="none" stroke-width="1" fill="none" fill-rule="evenodd">
        <g id="Overview" transform="translate(-577.000000, -170.000000)">
            <g id="Hero-Banner" transform="translate(0.000000, -55.000000)">
                <g id="Group-4" transform="translate(274.000000, 225.000000)">
                    <g id="guidelines-icon" transform="translate(303.000000, 0.000000)">
                        <g id="Group-3" transform="translate(0.000000, 14.936441)">
                            <mask id="mask-2" fill="white">
                                <use xlink:href="#path-1"></use>
                            </mask>
                            <g id="Clip-2"></g>
                            <path d="M10.7643459,0.98112037 C10.4992232,0.348762346 9.7631747,0.0470648148 9.12760652,0.311351852 L0.768371667,3.79052778 C0.134014091,4.05481481 -0.168637424,4.78854321 0.095274697,5.42090123 L0.952383788,7.46279012 L3.62540197,6.35012963 C3.96921409,6.2065216 4.36750348,6.36943827 4.51156561,6.71337346 C4.65441712,7.05610185 4.4909853,7.4531358 4.14717318,7.59674383 L1.47294439,8.70940432 L2.82155955,11.9291204 L7.53081712,9.96929321 C7.87462924,9.82689198 8.27291864,9.98980864 8.41819136,10.332537 C8.56104288,10.6752654 8.39640045,11.0735062 8.05258833,11.2159074 L3.34454136,13.1757346 L4.69194591,16.3954506 L7.3661747,15.2839969 C7.71119742,15.1403889 8.10948682,15.3033056 8.25354894,15.646034 C8.39640045,15.9899691 8.23175803,16.3870031 7.88915652,16.5294043 L5.21492773,17.6432716 L6.56354288,20.8629877 L11.2728005,18.9031605 C11.6166126,18.7595525 12.014902,18.9236759 12.1577535,19.2664043 C12.3030262,19.6091327 12.1383838,20.0061667 11.7945717,20.1497747 L7.08531409,22.1096019 L8.43392924,25.3293179 L11.108158,24.2166574 C11.4519702,24.0730494 11.8502595,24.2371728 11.9955323,24.5799012 C12.1383838,24.9226296 11.9737414,25.3196636 11.6299292,25.4632716 L8.95691106,26.5759321 L10.3055262,29.7956481 L15.0135732,27.835821 C15.3573853,27.6934198 15.7568853,27.8563364 15.8997368,28.1990648 C16.0437989,28.5417932 15.8803671,28.940034 15.5353444,29.083642 L10.8272974,31.0434691 L11.655352,33.0213981 L24.2408126,33.0213981 L10.7643459,0.98112037 Z" id="Fill-1" fill="#84919C" mask="url(#mask-2)"></path>
                        </g>
                        <g id="Group-6" transform="translate(46.003030, 14.936441)">
                            <mask id="mask-4" fill="white">
                                <use xlink:href="#path-3"></use>
                            </mask>
                            <g id="Clip-5"></g>
                            <path d="M18.5044768,11.6277849 C18.500845,11.7774269 18.3156223,11.8450071 18.2163526,11.7327756 L16.5469268,9.85742377 C16.2273268,9.49780031 15.7551905,9.31074784 15.2745798,9.3517787 L12.7698359,9.56779414 C12.6209314,9.58106883 12.5325571,9.40487747 12.6318268,9.29385278 L16.2430647,5.29817068 L16.4258662,5.25593302 L18.5383738,6.09585895 L18.6424859,6.25153488 L18.5044768,11.6277849 Z M18.5093192,0.544624383 L11.0410905,8.5951213 C10.7614405,8.89802562 10.5374783,9.24920154 10.384942,9.63175401 L0.978532879,33.0217602 L12.0180495,33.0217602 L19.9015162,13.415041 C20.0552632,13.0324886 20.1375844,12.6245935 20.1424268,12.2118713 L20.2804359,1.24818302 C20.2913314,0.316541049 19.1436768,-0.139625617 18.5093192,0.544624383 L18.5093192,0.544624383 Z" id="Fill-4" fill="#84919C" mask="url(#mask-4)"></path>
                        </g>
                        <path d="M40.3852129,27.6684392 L30.1120098,27.4789731 C30.0575326,33.856859 30.1967523,40.9781275 30.4800341,47.9582015 L39.5547371,47.9582015 C39.9227614,41.0481213 40.2060432,34.0016738 40.3852129,27.6684392" id="Fill-7" fill="#84919C"></path>
                        <path d="M30.1588603,23.8647574 L30.1540179,24.1459395 L30.4966194,24.1519735 L40.1221482,24.3305784 L40.4659603,24.3366123 L40.4720133,24.0554302 C42.4719345,22.4093685 43.7914952,19.8183901 43.8459724,16.875029 C43.9403997,11.7992698 38.0326421,6.10684074 37.2118512,0.000482716049 C32.5219633,4.49094877 27.1492936,11.4891247 27.0548664,16.5636772 C26.9991785,19.5082451 28.22068,22.1462883 30.1588603,23.8647574" id="Fill-9" fill="#84919C"></path>
                        <path d="M7.45939136,86.2089833 C7.45939136,92.1669062 12.3042368,96.997687 18.2822095,96.997687 L50.5799686,96.997687 C56.5567308,96.997687 61.4027868,92.1669062 61.4027868,86.2089833 L61.4027868,51.578934 L7.45939136,51.578934 L7.45939136,86.2089833 Z" id="Fill-11" fill="#84919C"></path>
                    </g>
                </g>
            </g>
        </g>
    </g>
</svg>

<svg width="67" height="97" viewBox="0 0 67 97" xmlns="http://www.w3.org/2000/svg" xmlns:xlink="http://www.w3.org/1999/xlink"><title>guidelines-icon</title><defs><path id="a" d="M0 .216V33.02h24.24V.216H0z"/><path id="c" d="M20.28 33.022V.216H.98v32.806h19.3z"/></defs><g fill="none" fill-rule="evenodd"><g transform="translate(0 14.936)"><mask id="b" fill="#fff"><use xlink:href="#a"/></mask><path d="M10.764.981a1.256 1.256 0 0 0-1.636-.67l-8.36 3.48a1.25 1.25 0 0 0-.673 1.63l.857 2.042L3.625 6.35a.68.68 0 0 1 .887.363.677.677 0 0 1-.365.884L1.473 8.709l1.349 3.22L7.53 9.97a.683.683 0 0 1 .887.364.678.678 0 0 1-.365.883l-4.708 1.96 1.347 3.22 2.674-1.112a.68.68 0 0 1 .888.362.678.678 0 0 1-.365.883l-2.674 1.114 1.349 3.22 4.709-1.96a.675.675 0 1 1 .522 1.247l-4.71 1.96 1.349 3.22 2.674-1.113a.682.682 0 0 1 .888.363.678.678 0 0 1-.366.883l-2.673 1.113 1.349 3.22 4.708-1.96a.677.677 0 0 1 .522 1.248l-4.709 1.96.828 1.977H24.24L10.764.981z" fill="#84919C" mask="url(#b)"/></g><g transform="translate(46.003 14.936)"><mask id="d" fill="#fff"><use xlink:href="#c"/></mask><path d="M18.504 11.628a.165.165 0 0 1-.288.105l-1.67-1.876a1.528 1.528 0 0 0-1.271-.505l-2.505.216a.165.165 0 0 1-.138-.274l3.611-3.996.183-.042 2.112.84.104.156-.138 5.376zM18.51.545l-7.468 8.05c-.28.303-.504.654-.656 1.037L.979 33.022h11.039l7.884-19.607c.153-.383.236-.79.24-1.203l.138-10.964c.011-.931-1.136-1.388-1.77-.703z" fill="#84919C" mask="url(#d)"/></g><path d="M40.385 27.668l-10.273-.189c-.054 6.378.085 13.5.368 20.48h9.075c.368-6.91.651-13.957.83-20.29m-10.226-3.804l-.005.28.343.007 9.625.179.344.006.006-.282c2-1.646 3.32-4.237 3.374-7.18C43.94 11.799 38.033 6.107 37.212 0c-4.69 4.49-10.063 11.49-10.157 16.564-.056 2.944 1.166 5.582 3.104 7.3M7.46 86.209c0 5.958 4.844 10.789 10.822 10.789H50.58c5.977 0 10.823-4.831 10.823-10.789v-34.63H7.459v34.63z" fill="#84919C"/></g></svg>
